Newaita-dark/mimetypes/scalable/application-x-theme.svg

<?xml version="1.0" encoding="UTF-8"?>
<svg xmlns="http://www.w3.org/2000/svg" xmlns:xlink="http://www.w3.org/1999/xlink" width="512pt" height="512pt" viewBox="0 0 512 512" version="1.1">
<defs>
<linearGradient id="linear0" gradientUnits="userSpaceOnUse" x1="254" y1="233.5" x2="254" y2="254.666672" gradientTransform="matrix(1.000095,0,0,1.000095,10.584324,215.020562)">
<stop offset="0" style="stop-color:rgb(0%,0%,0%);stop-opacity:0.27451;"/>
<stop offset="1" style="stop-color:rgb(0%,0%,0%);stop-opacity:0;"/>
</linearGradient>
<radialGradient id="radial0" gradientUnits="userSpaceOnUse" cx="450.908936" cy="189.579361" fx="450.908936" fy="189.579361" r="21.166656" gradientTransform="matrix(0.00000278673,-1.250119,-2.250215,-0.00000162462,791.753107,1017.525321)">
<stop offset="0" style="stop-color:rgb(0%,0%,0%);stop-opacity:0.313725;"/>
<stop offset="0.222222" style="stop-color:rgb(0%,0%,0%);stop-opacity:0.27451;"/>
<stop offset="1" style="stop-color:rgb(0%,0%,0%);stop-opacity:0;"/>
</radialGradient>
<radialGradient id="radial1" gradientUnits="userSpaceOnUse" cx="450.908936" cy="189.579361" fx="450.908936" fy="189.579361" r="21.166656" gradientTransform="matrix(-0.00000278673,1.250119,2.250215,0.00000162462,-294.288782,-120.439662)">
<stop offset="0" style="stop-color:rgb(0%,0%,0%);stop-opacity:0.313725;"/>
<stop offset="0.222222" style="stop-color:rgb(0%,0%,0%);stop-opacity:0.27451;"/>
<stop offset="1" style="stop-color:rgb(0%,0%,0%);stop-opacity:0;"/>
</radialGradient>
<radialGradient id="radial2" gradientUnits="userSpaceOnUse" cx="450.908936" cy="189.579361" fx="450.908936" fy="189.579361" r="21.166656" gradientTransform="matrix(-0.00000278673,-1.250119,2.250215,-0.00000162462,-294.288782,1017.525321)">
<stop offset="0" style="stop-color:rgb(0%,0%,0%);stop-opacity:0.313725;"/>
<stop offset="0.222222" style="stop-color:rgb(0%,0%,0%);stop-opacity:0.27451;"/>
<stop offset="1" style="stop-color:rgb(0%,0%,0%);stop-opacity:0;"/>
</radialGradient>
<radialGradient id="radial3" gradientUnits="userSpaceOnUse" cx="450.908936" cy="189.579361" fx="450.908936" fy="189.579361" r="21.166656" gradientTransform="matrix(0.00000278673,1.250119,-2.250215,0.00000162462,791.753076,-120.43967)">
<stop offset="0" style="stop-color:rgb(0%,0%,0%);stop-opacity:0.313725;"/>
<stop offset="0.222222" style="stop-color:rgb(0%,0%,0%);stop-opacity:0.27451;"/>
<stop offset="1" style="stop-color:rgb(0%,0%,0%);stop-opacity:0;"/>
</radialGradient>
<linearGradient id="linear1" gradientUnits="userSpaceOnUse" x1="940" y1="1695.118164" x2="940" y2="175.118118" gradientTransform="matrix(0.264609,0,0,0.264609,0,0)">
<stop offset="0" style="stop-color:rgb(70.196078%,61.568627%,85.882353%);stop-opacity:1;"/>
<stop offset="1" style="stop-color:rgb(81.960784%,76.862745%,91.372549%);stop-opacity:1;"/>
</linearGradient>
<linearGradient id="linear2" gradientUnits="userSpaceOnUse" x1="249.189392" y1="236.523804" x2="249.189423" y2="254.666687" gradientTransform="matrix(0.478307,0,0,1.750165,240.678774,-264.420634)">
<stop offset="0" style="stop-color:rgb(0%,0%,0%);stop-opacity:0.27451;"/>
<stop offset="1" style="stop-color:rgb(0%,0%,0%);stop-opacity:0;"/>
</linearGradient>
<linearGradient id="linear3" gradientUnits="userSpaceOnUse" x1="338.666656" y1="233.5" x2="338.666656" y2="-168.666672" gradientTransform="matrix(1.000095,0,0,1.000095,0,215.020531)">
<stop offset="0" style="stop-color:rgb(49.411765%,34.117647%,76.078431%);stop-opacity:1;"/>
<stop offset="1" style="stop-color:rgb(58.431373%,45.882353%,80.392157%);stop-opacity:1;"/>
</linearGradient>
<filter id="alpha" filterUnits="objectBoundingBox" x="0%" y="0%" width="100%" height="100%">
  <feColorMatrix type="matrix" in="SourceGraphic" values="0 0 0 0 1 0 0 0 0 1 0 0 0 0 1 0 0 0 1 0"/>
</filter>
<mask id="mask0">
  <g filter="url(#alpha)">
<rect x="0" y="0" width="512" height="512" style="fill:rgb(0%,0%,0%);fill-opacity:0.988235;stroke:none;"/>
  </g>
</mask>
<linearGradient id="linear4" gradientUnits="userSpaceOnUse" x1="248.708344" y1="233.5" x2="248.708344" y2="-168.666672" >
<stop offset="0" style="stop-color:rgb(49.411765%,34.117647%,76.078431%);stop-opacity:1;"/>
<stop offset="1" style="stop-color:rgb(58.431373%,45.882353%,80.392157%);stop-opacity:1;"/>
</linearGradient>
<clipPath id="clip1">
  <rect x="0" y="0" width="512" height="512"/>
</clipPath>
<g id="surface5" clip-path="url(#clip1)">
<path style="fill-rule:nonzero;fill:url(#linear4);stroke-width:11.338583;stroke-linecap:round;stroke-linejoin:round;stroke:rgb(12.941177%,12.941177%,12.941177%);stroke-opacity:1;stroke-miterlimit:4;" d="M 759.996362 855.110315 C 748.924584 855.110315 739.993349 864.041549 739.993349 875.113327 L 739.993349 915.119351 C 739.993349 926.191129 748.924584 935.122364 759.996362 935.122364 L 900.002684 935.122364 L 900.002684 1235.123258 C 900.002684 1246.195036 908.919156 1255.111508 920.005696 1255.111508 L 959.996958 1255.111508 C 971.083498 1255.111508 979.99997 1246.195036 979.99997 1235.123258 L 979.99997 935.122364 L 1120.006293 935.122364 C 1131.078071 935.122364 1139.994542 926.191129 1139.994542 915.119351 L 1139.994542 875.113327 C 1139.994542 864.041549 1131.078071 855.110315 1120.006293 855.110315 Z M 759.996362 855.110315 " transform="matrix(0.264609,0,0,0.264609,0,0)"/>
</g>
<mask id="mask1">
  <g filter="url(#alpha)">
<rect x="0" y="0" width="512" height="512" style="fill:rgb(0%,0%,0%);fill-opacity:0.988235;stroke:none;"/>
  </g>
</mask>
<linearGradient id="linear5" gradientUnits="userSpaceOnUse" x1="248.708344" y1="233.5" x2="248.708344" y2="-168.666672" >
<stop offset="0" style="stop-color:rgb(49.411765%,34.117647%,76.078431%);stop-opacity:1;"/>
<stop offset="1" style="stop-color:rgb(58.431373%,45.882353%,80.392157%);stop-opacity:1;"/>
</linearGradient>
<clipPath id="clip2">
  <rect x="0" y="0" width="512" height="512"/>
</clipPath>
<g id="surface8" clip-path="url(#clip2)">
<path style="fill-rule:nonzero;fill:url(#linear5);stroke-width:3;stroke-linecap:round;stroke-linejoin:round;stroke:rgb(12.941177%,12.941177%,12.941177%);stroke-opacity:1;stroke-miterlimit:4;" d="M 243.418161 -31.083969 L 253.999182 -31.083969 C 256.920778 -31.083969 259.291645 -28.713102 259.291645 -25.791506 L 259.291645 -15.206579 C 259.291645 -12.284983 256.920778 -9.918022 253.999182 -9.918022 L 243.418161 -9.918022 C 240.492659 -9.918022 238.125698 -12.284983 238.125698 -15.206579 L 238.125698 -25.791506 C 238.125698 -28.713102 240.492659 -31.083969 243.418161 -31.083969 Z M 243.418161 -31.083969 " transform="matrix(1.000095,0,0,1.000095,0,215.020531)"/>
</g>
<mask id="mask2">
  <g filter="url(#alpha)">
<rect x="0" y="0" width="512" height="512" style="fill:rgb(0%,0%,0%);fill-opacity:0.988235;stroke:none;"/>
  </g>
</mask>
<linearGradient id="linear6" gradientUnits="userSpaceOnUse" x1="248.708344" y1="233.5" x2="248.708344" y2="-168.666672" >
<stop offset="0" style="stop-color:rgb(49.411765%,34.117647%,76.078431%);stop-opacity:1;"/>
<stop offset="1" style="stop-color:rgb(58.431373%,45.882353%,80.392157%);stop-opacity:1;"/>
</linearGradient>
<clipPath id="clip3">
  <rect x="0" y="0" width="512" height="512"/>
</clipPath>
<g id="surface11" clip-path="url(#clip3)">
<path style="fill-rule:nonzero;fill:url(#linear6);stroke-width:3;stroke-linecap:round;stroke-linejoin:round;stroke:rgb(12.941177%,12.941177%,12.941177%);stroke-opacity:1;stroke-miterlimit:4;" d="M 285.750056 -31.083969 L 296.334983 -31.083969 C 299.256579 -31.083969 301.62354 -28.713102 301.62354 -25.791506 L 301.62354 -15.206579 C 301.62354 -12.284983 299.256579 -9.918022 296.334983 -9.918022 L 285.750056 -9.918022 C 282.82846 -9.918022 280.457593 -12.284983 280.457593 -15.206579 L 280.457593 -25.791506 C 280.457593 -28.713102 282.82846 -31.083969 285.750056 -31.083969 Z M 285.750056 -31.083969 " transform="matrix(1.000095,0,0,1.000095,0,215.020531)"/>
</g>
<mask id="mask3">
  <g filter="url(#alpha)">
<rect x="0" y="0" width="512" height="512" style="fill:rgb(0%,0%,0%);fill-opacity:0.988235;stroke:none;"/>
  </g>
</mask>
<linearGradient id="linear7" gradientUnits="userSpaceOnUse" x1="248.708344" y1="233.5" x2="248.708344" y2="-168.666672" >
<stop offset="0" style="stop-color:rgb(49.411765%,34.117647%,76.078431%);stop-opacity:1;"/>
<stop offset="1" style="stop-color:rgb(58.431373%,45.882353%,80.392157%);stop-opacity:1;"/>
</linearGradient>
<clipPath id="clip4">
  <rect x="0" y="0" width="512" height="512"/>
</clipPath>
<g id="surface14" clip-path="url(#clip4)">
<path style="fill-rule:nonzero;fill:url(#linear7);stroke-width:3;stroke-linecap:round;stroke-linejoin:round;stroke:rgb(12.941177%,12.941177%,12.941177%);stroke-opacity:1;stroke-miterlimit:4;" d="M 201.08236 -31.083969 L 211.667287 -31.083969 C 214.588883 -31.083969 216.95975 -28.713102 216.95975 -25.791506 L 216.95975 -15.206579 C 216.95975 -12.284983 214.588883 -9.918022 211.667287 -9.918022 L 201.08236 -9.918022 C 198.160764 -9.918022 195.789897 -12.284983 195.789897 -15.206579 L 195.789897 -25.791506 C 195.789897 -28.713102 198.160764 -31.083969 201.08236 -31.083969 Z M 201.08236 -31.083969 " transform="matrix(1.000095,0,0,1.000095,0,215.020531)"/>
</g>
</defs>
<g id="surface1">
<path style=" stroke:none;fill-rule:nonzero;fill:url(#linear0);" d="M 127.011719 448.542969 L 370.453125 448.542969 L 370.453125 469.710938 L 127.011719 469.710938 Z M 127.011719 448.542969 "/>
<path style=" stroke:none;fill-rule:nonzero;fill:url(#radial0);" d="M 370.453125 448.542969 L 412.789062 448.542969 L 412.789062 427.375 L 370.453125 427.375 Z M 370.453125 448.542969 "/>
<path style=" stroke:none;fill-rule:nonzero;fill:url(#radial1);" d="M 127.011719 448.542969 L 84.675781 448.542969 L 84.675781 469.710938 L 127.011719 469.710938 Z M 127.011719 448.542969 "/>
<path style=" stroke:none;fill-rule:nonzero;fill:url(#radial2);" d="M 127.011719 448.542969 L 84.675781 448.542969 L 84.675781 427.375 L 127.011719 427.375 Z M 127.011719 448.542969 "/>
<path style=" stroke:none;fill-rule:nonzero;fill:url(#radial3);" d="M 370.453125 448.542969 L 412.789062 448.542969 L 412.789062 469.710938 L 370.453125 469.710938 Z M 370.453125 448.542969 "/>
<path style=" stroke:none;fill-rule:nonzero;fill:url(#linear1);" d="M 296.671875 46.335938 L 105.84375 46.335938 C 94.117188 46.335938 84.675781 55.777344 84.675781 67.507812 L 84.675781 427.375 C 84.675781 439.101562 94.117188 448.542969 105.84375 448.542969 L 391.621094 448.542969 C 403.347656 448.542969 412.789062 439.101562 412.789062 427.375 L 412.789062 162.453125 Z M 296.671875 46.335938 "/>
<path style=" stroke:none;fill-rule:nonzero;fill:url(#linear2);" d="M 296.363281 144.242188 L 396.914062 144.242188 L 412.789062 160.121094 L 412.789062 181.289062 L 296.363281 181.289062 Z M 296.363281 144.242188 "/>
<path style=" stroke:none;fill-rule:nonzero;fill:rgb(0%,0%,0%);fill-opacity:0.235294;" d="M 84.675781 419.15625 L 84.675781 427.375 C 84.675781 439.101562 94.117188 448.542969 105.84375 448.542969 L 391.621094 448.542969 C 403.347656 448.542969 412.789062 439.101562 412.789062 427.375 L 412.789062 419.15625 C 412.789062 430.882812 403.347656 440.324219 391.621094 440.324219 L 105.84375 440.324219 C 94.117188 440.324219 84.675781 430.882812 84.675781 419.15625 Z M 84.675781 419.15625 "/>
<path style=" stroke:none;fill-rule:nonzero;fill:rgb(100%,100%,100%);fill-opacity:0.784314;" d="M 105.84375 46.335938 C 94.117188 46.335938 84.675781 55.777344 84.675781 67.507812 L 84.675781 75.445312 C 84.675781 63.71875 94.117188 54.277344 105.84375 54.277344 L 296.671875 54.277344 L 412.789062 170.390625 L 412.789062 162.453125 L 296.671875 46.335938 Z M 105.84375 46.335938 "/>
<path style=" stroke:none;fill-rule:nonzero;fill:url(#linear3);" d="M 412.789062 162.453125 L 296.671875 46.335938 L 296.671875 141.285156 C 296.671875 153.011719 306.113281 162.453125 317.839844 162.453125 Z M 412.789062 162.453125 "/>
<path style=" stroke:none;fill-rule:nonzero;fill:rgb(0%,0%,0%);fill-opacity:0.235294;" d="M 296.671875 136.304688 L 296.671875 141.285156 C 296.671875 153.011719 306.113281 162.453125 317.839844 162.453125 L 412.789062 162.453125 L 407.808594 157.472656 L 317.839844 157.472656 C 306.113281 157.472656 296.671875 148.03125 296.671875 136.304688 Z M 296.671875 136.304688 "/>
<path style=" stroke:none;fill-rule:nonzero;fill:rgb(100%,100%,100%);fill-opacity:0.392157;" d="M 296.671875 46.335938 L 296.671875 54.277344 L 404.851562 162.453125 L 412.789062 162.453125 Z M 296.671875 46.335938 "/>
<path style=" stroke:none;fill-rule:nonzero;fill:rgb(12.941177%,12.941177%,12.941177%);fill-opacity:1;" d="M 296.652344 44.839844 C 295.832031 44.851562 295.171875 45.515625 295.171875 46.335938 L 295.171875 141.285156 C 295.171875 153.816406 305.308594 163.953125 317.839844 163.953125 L 412.789062 163.953125 C 413.394531 163.953125 413.941406 163.585938 414.175781 163.027344 C 414.40625 162.464844 414.277344 161.820312 413.851562 161.390625 L 297.734375 45.277344 C 297.445312 44.988281 297.054688 44.832031 296.652344 44.839844 Z M 298.171875 49.957031 L 409.167969 160.953125 L 317.839844 160.953125 C 306.917969 160.953125 298.171875 152.207031 298.171875 141.285156 Z M 298.171875 49.957031 "/>
<path style=" stroke:none;fill-rule:nonzero;fill:rgb(12.941177%,12.941177%,12.941177%);fill-opacity:1;" d="M 105.84375 44.835938 C 93.3125 44.835938 83.175781 54.972656 83.175781 67.507812 L 83.175781 427.375 C 83.175781 439.90625 93.3125 450.042969 105.84375 450.042969 L 391.621094 450.042969 C 404.152344 450.042969 414.289062 439.90625 414.289062 427.375 L 414.289062 162.453125 C 414.289062 162.054688 414.132812 161.675781 413.851562 161.394531 L 297.734375 45.277344 C 297.453125 44.996094 297.070312 44.835938 296.671875 44.835938 Z M 105.84375 47.835938 L 296.050781 47.835938 L 411.289062 163.074219 L 411.289062 427.375 C 411.289062 438.296875 402.542969 447.042969 391.621094 447.042969 L 105.84375 447.042969 C 94.921875 447.042969 86.175781 438.296875 86.175781 427.375 L 86.175781 67.507812 C 86.175781 56.582031 94.921875 47.835938 105.84375 47.835938 Z M 105.84375 47.835938 "/>
<use xlink:href="#surface5" mask="url(#mask0)"/>
<use xlink:href="#surface8" mask="url(#mask1)"/>
<use xlink:href="#surface11" mask="url(#mask2)"/>
<use xlink:href="#surface14" mask="url(#mask3)"/>
</g>
</svg>

<svg xmlns="http://www.w3.org/2000/svg" xmlns:xlink="http://www.w3.org/1999/xlink" width="512pt" height="512pt" viewBox="0 0 512 512"><defs><linearGradient id="j" gradientUnits="userSpaceOnUse" x1="254" y1="233.5" x2="254" y2="254.667" gradientTransform="matrix(1.0001 0 0 1.0001 10.584 215.02)"><stop offset="0" stop-opacity=".275"/><stop offset="1" stop-opacity="0"/></linearGradient><radialGradient id="k" gradientUnits="userSpaceOnUse" cx="450.909" cy="189.579" fx="450.909" fy="189.579" r="21.167" gradientTransform="matrix(0 -1.25012 -2.25021 0 791.753 1017.525)"><stop offset="0" stop-opacity=".314"/><stop offset=".222" stop-opacity=".275"/><stop offset="1" stop-opacity="0"/></radialGradient><radialGradient id="l" gradientUnits="userSpaceOnUse" cx="450.909" cy="189.579" fx="450.909" fy="189.579" r="21.167" gradientTransform="matrix(0 1.25012 2.25021 0 -294.289 -120.44)"><stop offset="0" stop-opacity=".314"/><stop offset=".222" stop-opacity=".275"/><stop offset="1" stop-opacity="0"/></radialGradient><radialGradient id="m" gradientUnits="userSpaceOnUse" cx="450.909" cy="189.579" fx="450.909" fy="189.579" r="21.167" gradientTransform="matrix(0 -1.25012 2.25021 0 -294.289 1017.525)"><stop offset="0" stop-opacity=".314"/><stop offset=".222" stop-opacity=".275"/><stop offset="1" stop-opacity="0"/></radialGradient><radialGradient id="n" gradientUnits="userSpaceOnUse" cx="450.909" cy="189.579" fx="450.909" fy="189.579" r="21.167" gradientTransform="matrix(0 1.25012 -2.25021 0 791.753 -120.44)"><stop offset="0" stop-opacity=".314"/><stop offset=".222" stop-opacity=".275"/><stop offset="1" stop-opacity="0"/></radialGradient><linearGradient id="o" gradientUnits="userSpaceOnUse" x1="940" y1="1695.118" x2="940" y2="175.118" gradientTransform="rotate(.158) scale(.26461)"><stop offset="0" stop-color="#b39ddb"/><stop offset="1" stop-color="#d1c4e9"/></linearGradient><linearGradient id="p" gradientUnits="userSpaceOnUse" x1="249.189" y1="236.524" x2="249.189" y2="254.667" gradientTransform="matrix(.4783 0 0 1.75016 240.679 -264.42)"><stop offset="0" stop-opacity=".275"/><stop offset="1" stop-opacity="0"/></linearGradient><linearGradient id="q" gradientUnits="userSpaceOnUse" x1="338.667" y1="233.5" x2="338.667" y2="-168.667" gradientTransform="matrix(1.0001 0 0 1.0001 0 215.02)"><stop offset="0" stop-color="#7e57c2"/><stop offset="1" stop-color="#9575cd"/></linearGradient><filter id="a" filterUnits="objectBoundingBox" x="0%" y="0%" width="100%" height="100%"><feColorMatrix in="SourceGraphic" values="0 0 0 0 1 0 0 0 0 1 0 0 0 0 1 0 0 0 1 0"/></filter><mask id="s"><path fill-opacity=".988" d="M0 0h512v512H0z" filter="url(#a)"/></mask><linearGradient id="c" gradientUnits="userSpaceOnUse" x1="248.708" y1="233.5" x2="248.708" y2="-168.667"><stop offset="0" stop-color="#7e57c2"/><stop offset="1" stop-color="#9575cd"/></linearGradient><clipPath id="b"><path d="M0 0h512v512H0z"/></clipPath><g id="r" clip-path="url(#b)"><path d="M759.996 855.11c-11.071 0-20.003 8.932-20.003 20.003v40.006c0 11.072 8.932 20.003 20.003 20.003h140.007v300.001c0 11.072 8.916 19.989 20.003 19.989h39.991c11.086 0 20.003-8.917 20.003-19.989v-300h140.006c11.072 0 19.989-8.932 19.989-20.004v-40.006c0-11.071-8.917-20.003-19.989-20.003zm0 0" transform="rotate(.158) scale(.26461)" fill="url(#c)" stroke-width="11.339" stroke-linecap="round" stroke-linejoin="round" stroke="#212121"/></g><mask id="u"><path fill-opacity=".988" d="M0 0h512v512H0z" filter="url(#a)"/></mask><linearGradient id="e" gradientUnits="userSpaceOnUse" x1="248.708" y1="233.5" x2="248.708" y2="-168.667"><stop offset="0" stop-color="#7e57c2"/><stop offset="1" stop-color="#9575cd"/></linearGradient><clipPath id="d"><path d="M0 0h512v512H0z"/></clipPath><g id="t" clip-path="url(#d)"><path d="M243.418-31.084H254a5.294 5.294 0 0 1 5.293 5.292v10.585a5.29 5.29 0 0 1-5.293 5.289h-10.58a5.288 5.288 0 0 1-5.293-5.289v-10.585a5.292 5.292 0 0 1 5.292-5.292zm0 0" transform="matrix(1.0001 0 0 1.0001 0 215.02)" fill="url(#e)" stroke-width="3" stroke-linecap="round" stroke-linejoin="round" stroke="#212121"/></g><mask id="w"><path fill-opacity=".988" d="M0 0h512v512H0z" filter="url(#a)"/></mask><linearGradient id="g" gradientUnits="userSpaceOnUse" x1="248.708" y1="233.5" x2="248.708" y2="-168.667"><stop offset="0" stop-color="#7e57c2"/><stop offset="1" stop-color="#9575cd"/></linearGradient><clipPath id="f"><path d="M0 0h512v512H0z"/></clipPath><g id="v" clip-path="url(#f)"><path d="M285.75-31.084h10.585a5.29 5.29 0 0 1 5.289 5.292v10.585a5.288 5.288 0 0 1-5.289 5.289H285.75a5.29 5.29 0 0 1-5.292-5.289v-10.585a5.294 5.294 0 0 1 5.292-5.292zm0 0" transform="matrix(1.0001 0 0 1.0001 0 215.02)" fill="url(#g)" stroke-width="3" stroke-linecap="round" stroke-linejoin="round" stroke="#212121"/></g><mask id="y"><path fill-opacity=".988" d="M0 0h512v512H0z" filter="url(#a)"/></mask><linearGradient id="i" gradientUnits="userSpaceOnUse" x1="248.708" y1="233.5" x2="248.708" y2="-168.667"><stop offset="0" stop-color="#7e57c2"/><stop offset="1" stop-color="#9575cd"/></linearGradient><clipPath id="h"><path d="M0 0h512v512H0z"/></clipPath><g id="x" clip-path="url(#h)"><path d="M201.082-31.084h10.585a5.294 5.294 0 0 1 5.293 5.292v10.585a5.29 5.29 0 0 1-5.293 5.289h-10.585a5.29 5.29 0 0 1-5.292-5.289v-10.585a5.294 5.294 0 0 1 5.292-5.292zm0 0" transform="matrix(1.0001 0 0 1.0001 0 215.02)" fill="url(#i)" stroke-width="3" stroke-linecap="round" stroke-linejoin="round" stroke="#212121"/></g></defs><path d="M127.012 448.543h243.441v21.168H127.012zm0 0" fill="url(#j)"/><path d="M370.453 448.543h42.336v-21.168h-42.336zm0 0" fill="url(#k)"/><path d="M127.012 448.543H84.676v21.168h42.336zm0 0" fill="url(#l)"/><path d="M127.012 448.543H84.676v-21.168h42.336zm0 0" fill="url(#m)"/><path d="M370.453 448.543h42.336v21.168h-42.336zm0 0" fill="url(#n)"/><path d="M296.672 46.336H105.844a21.123 21.123 0 0 0-21.168 21.172v359.867a21.122 21.122 0 0 0 21.168 21.168H391.62a21.122 21.122 0 0 0 21.168-21.168V162.453zm0 0" fill="url(#o)"/><path d="M296.363 144.242h100.551l15.875 15.88v21.167H296.363zm0 0" fill="url(#p)"/><path d="M84.676 419.156v8.219a21.122 21.122 0 0 0 21.168 21.168H391.62a21.122 21.122 0 0 0 21.168-21.168v-8.219a21.122 21.122 0 0 1-21.168 21.168H105.844a21.122 21.122 0 0 1-21.168-21.168zm0 0" fill-opacity=".235"/><path d="M105.844 46.336a21.123 21.123 0 0 0-21.168 21.172v7.937a21.122 21.122 0 0 1 21.168-21.168h190.828l116.117 116.114v-7.938L296.672 46.336zm0 0" fill="#fff" fill-opacity=".784"/><path d="M412.79 162.453L296.671 46.336v94.95a21.122 21.122 0 0 0 21.168 21.167zm0 0" fill="url(#q)"/><path d="M296.672 136.305v4.98a21.122 21.122 0 0 0 21.168 21.168h94.95l-4.981-4.98h-89.97a21.122 21.122 0 0 1-21.167-21.168zm0 0" fill-opacity=".235"/><path d="M296.672 46.336v7.941l108.18 108.176h7.937zm0 0" fill="#fff" fill-opacity=".392"/><path d="M296.652 44.84c-.82.012-1.48.676-1.48 1.496v94.95c0 12.53 10.137 22.667 22.668 22.667h94.95c.605 0 1.151-.367 1.386-.926a1.512 1.512 0 0 0-.324-1.636L297.734 45.277c-.289-.289-.68-.445-1.082-.437zm1.52 5.117l110.996 110.996H317.84a19.592 19.592 0 0 1-19.668-19.668zm0 0" fill="#212121"/><path d="M105.844 44.836c-12.531 0-22.668 10.137-22.668 22.672v359.867c0 12.531 10.136 22.668 22.668 22.668H391.62c12.531 0 22.668-10.137 22.668-22.668V162.453c0-.398-.156-.777-.437-1.058L297.734 45.277a1.505 1.505 0 0 0-1.062-.441zm0 3H296.05l115.238 115.238v264.301a19.592 19.592 0 0 1-19.668 19.668H105.844a19.592 19.592 0 0 1-19.668-19.668V67.508a19.593 19.593 0 0 1 19.668-19.672zm0 0" fill="#212121"/><use xlink:href="#r" mask="url(#s)"/><use xlink:href="#t" mask="url(#u)"/><use xlink:href="#v" mask="url(#w)"/><use xlink:href="#x" mask="url(#y)"/></svg>
